X:1
T:Boarischer
%%textfont Helvetica-Narrow 10pt
%%begintext align
B:"Schule fuer boehmischen Bock", Band I, R.Lughofer, Eigenverlag, Kremsmuenster 1998
%%endtext 
F:http://simonwascher.info
Z:abc transcription Simon Wascher
M:2/4
L:1/16
K:G
GA |\
B2d2 A2c2 | G2B2 B3G | F2c2 c3F | GABc d2GA |
B2d2 A2c2 | G2B2 B3G | F2c2 c3F | G2B2G2 :|
|: D2 |\
A2c2 c2AF | G2GB d2B2 | A2c2 cAFD | G2GB d2GA |
B2d2 A2c2 | G2B2 B3G | F2c2 c3F | G2B2G2 :|
de |\
d2g2 b3g | e2g2 d3g | ^f2fg a2f2 | g2b2 agfe |
d2f2 b3g | e2g2 d3g | f2d2 b3a | g2b2g2 :|
%%wordsfont Times-Italic 11pt
W:aus Simon Waschers TradArchiv
